X: 25490
T: Mare Nostrum
R: slip jig
M: 9/8
K: Bminor
M:5/4
B2F Bd edc AF|FGE GB ced cd|B2F Bd edc AF|G2B df e2e dc|
B2F Bd edc AF|FGE GB ced cd|B2F Bd edc AF|G2B df e2e ag|
M:5/8
fBB df|g2B df|e2A ce|aag fe|fBB df|g2B df|e2A ce|aba bg|
fBB df|~g3 gf|e2A ce|a2g fe|f2B df|g2B df|e2A ce|aag fd|

